X: 27577
T: Monoceros, The
R: jig
M: 6/8
K: Dmajor
A|:"D"D2 F FEF|"Em"FEF G2 F|"A"B2 B AGF|"D"B ~E2 FEF|
A2 D AEF|"Em"GFA B2 G|"D"AAB "Em"AGF|1 "A"E2 F "D"D2 A:|2 "A"E2 F "D"D2 g||
|:"D"eff dff|"Em"eff g2 f|"A"bag gfe|"D"fAB d2 A|
DAA EAG|"Em"GFA BAG|"D"AAB "Em"AGF|1 "A"E2 F "D"D2 f:|2 "A"E2 F "D"D3||

